Assets/Demo/LUTs/02_Color LUTs_Creative Blue.cube
TITLE "Generated by Resolve"
LUT_3D_SIZE 5
0.0742351 0.0742351 0.0742351
0.247791 0.0377661 0.0366979
0.491173 0 0
0.763867 0 0
0.950301 0 0
0 0.165713 0.0465705
0.14847 0.190539 0.0785229
0.503502 0.171176 0
0.767407 0.162325 0
0.974502 0.181598 0
0 0.368612 0.134951
0.0621653 0.428748 0.195789
0.420951 0.451606 0.108736
0.789425 0.467414 0.0249027
1 0.502846 0.03888
0 0.757992 0.203861
0.0992447 0.79263 0.253269
0.409979 0.794995 0.243915
0.753246 0.782406 0.154849
1 0.780346 0.0918441
0 1 0.264805
0.186816 1 0.238102
0.489586 1 0.171221
0.778881 0.984207 0.101015
0.993454 0.966812 0.0529946
0.0605478 0.0604105 0.270604
0.201068 0.028275 0.212284
0.432227 0 0.175952
0.762112 0 0.150072
0.949172 0 0.132372
0 0.158068 0.235843
0.205875 0.205875 0.205875
0.485328 0.176989 0.161166
0.7467 0.170474 0.140597
0.986465 0.192859 0.152544
0 0.358953 0.324361
0.0448615 0.441047 0.403052
0.423484 0.489754 0.288853
0.821241 0.485725 0.170871
1 0.516762 0.196674
0 0.779568 0.38999
0.146532 0.757549 0.508003
0.406592 0.79411 0.449897
0.745068 0.787594 0.321187
1 0.781582 0.220386
0 1 0.427832
0.198001 1 0.394202
0.503365 1 0.320867
0.792584 0.986465 0.24538
1 0.965042 0.196918
0.0415198 0.0426184 0.520836
0.150988 0.0201419 0.452552
0.357412 0.000534066 0.383322
0.754833 0 0.410956
0.942489 0 0.390097
0 0.146517 0.45005
0.0311284 0.164508 0.488899
0.389136 0.1785 0.419348
0.687907 0.177371 0.389258
0.991516 0.197284 0.41326
0 0.35227 0.532433
0.040238 0.429358 0.634287
0.512947 0.512947 0.512947
0.797421 0.511238 0.488502
1 0.526848 0.468711
0 0.794797 0.658274
0.173129 0.757687 0.743862
0.396582 0.803876 0.723827
0.740459 0.813993 0.60061
1 0.780346 0.461936
0 1 0.677791
0.200839 1 0.6477
0.516854 0.999939 0.638987
0.779385 0.979828 0.544274
0.989425 0.962432 0.469764
0.0255283 0.0304112 0.808637
0.20119 0.00598154 0.783337
0.493431 0 0.711467
0.748806 0 0.661875
0.937255 0 0.641138
0 0.192126 0.800626
0.0288548 0.168963 0.636698
0.312245 0.184237 0.611688
0.615274 0.196567 0.611872
0.998581 0.205676 0.688701
0 0.463844 0.835492
0.0558328 0.445167 0.783154
0.274464 0.498711 0.812985
0.699855 0.527886 0.75494
0.952026 0.547509 0.742718
0 0.807736 0.909133
0.190463 0.779141 0.91902
0.408667 0.814481 0.925032
0.825422 0.825422 0.825422
1 0.798856 0.773648
0 1 0.920501
0.204471 1 0.899489
0.517266 1 0.87013
0.781033 1 0.814603
0.996658 0.98349 0.759869
0.0107576 0.0209049 1
0.185672 0.0021973 0.976471
0.463615 0 0.917082
0.746319 0 0.862058
0.940337 0 0.863386
0 0.191592 0.996063
0.0883955 0.199008 1
0.428428 0.189334 0.958968
0.78027 0.190448 0.912184
1 0.219883 0.921218
0 0.47541 1
0.062501 0.519768 1
0.297948 0.518288 0.908721
0.64419 0.546731 0.898985
0.881025 0.57554 0.91519
0 0.822324 1
0.142504 0.858122 1
0.437308 0.825208 1
0.706111 0.825177 1
0.975677 0.807843 0.983764
0.00199893 1 1
0.214832 1 1
0.524208 1 1
0.787869 1 1
1 1 1
