Assets/Demo/LUTs/02_Color LUTs_Creative Blue.cube
TITLE "Generated by Resolve"
LUT_3D_SIZE 9
0.0742351 0.0742351 0.0742351
0.157595 0.0567483 0.0562295
0.247791 0.0377661 0.0366979
0.364996 0.0154726 0.0143893
0.491173 0 0
0.648661 0 0
0.763867 0 0
0.861006 0 0
0.950301 0 0
0.0239719 0.114046 0.0307469
0.10985 0.116548 0.038468
0.238468 0.105882 0.00848402
0.368658 0.0896162 0
0.50016 0.073991 0
0.637675 0.0603647 0
0.760586 0.0524605 0
0.861433 0.0515145 0
0.955184 0.0552529 0
0 0.165713 0.0465705
0.0558328 0.185214 0.0635538
0.14847 0.190539 0.0785229
0.341131 0.181872 0.00138857
0.503502 0.171176 0
0.641428 0.163363 0
0.767407 0.162325 0
0.874159 0.169177 0
0.974502 0.181598 0
0 0.252766 0.0793011
0.0110018 0.276555 0.105394
0.0863813 0.295201 0.126146
0.253727 0.297627 0.0861372
0.464775 0.297734 0.0105745
0.642496 0.299321 0
0.783093 0.30692 0
0.895689 0.321035 0
0.999069 0.338659 0.0125734
0 0.368612 0.134951
0 0.399222 0.168673
0.0621653 0.428748 0.195789
0.206012 0.444663 0.182635
0.420951 0.451606 0.108736
0.624903 0.45713 0.0519112
0.789425 0.467414 0.0249027
0.914549 0.483268 0.0251011
1 0.502846 0.03888
0 0.592905 0.138613
0 0.601968 0.184848
0.0733654 0.586206 0.270283
0.205493 0.605356 0.259617
0.397086 0.620478 0.198703
0.60708 0.631251 0.129778
0.779217 0.638437 0.0948959
0.915648 0.649393 0.0767376
1 0.660044 0.069749
0 0.757992 0.203861
0 0.776074 0.232776
0.0992447 0.79263 0.253269
0.248112 0.796887 0.255528
0.409979 0.794995 0.243915
0.590051 0.788113 0.200778
0.753246 0.782406 0.154849
0.887541 0.780331 0.117952
1 0.780346 0.0918441
0 0.920302 0.25919
0.0396735 0.933043 0.268605
0.149325 0.939803 0.26743
0.295811 0.932433 0.248447
0.452232 0.919554 0.22092
0.608331 0.904799 0.18912
0.748409 0.892683 0.158221
0.867765 0.884901 0.130739
0.975311 0.879286 0.105501
0 1 0.264805
0.0747539 1 0.25536
0.186816 1 0.238102
0.334066 1 0.207233
0.489586 1 0.171221
0.642939 0.999939 0.134005
0.778881 0.984207 0.101015
0.892546 0.973541 0.0743877
0.993454 0.966812 0.0529946
0.0675059 0.0673991 0.16672
0.143542 0.050248 0.144183
0.214374 0.0330968 0.120363
0.33637 0.0141299 0.10074
0.466545 0 0.0824598
0.646708 0 0.0638437
0.763653 0 0.0488594
0.861006 0 0.0399176
0.950393 0 0.0344701
0.0200198 0.109209 0.127626
0.118517 0.118517 0.118517
0.228107 0.105531 0.102998
0.355138 0.0875257 0.0809644
0.486351 0.0736248 0.0648203
0.615045 0.0620279 0.0508888
0.76286 0.0535134 0.0372625
0.864164 0.0535897 0.0350042
0.958175 0.0581674 0.0373693
0 0.162402 0.139437
0.0442969 0.189975 0.161944
0.176135 0.201755 0.125765
0.357733 0.188083 0.065919
0.505074 0.172686 0.0472267
0.639597 0.166171 0.0407111
0.76849 0.166491 0.0381323
0.880385 0.174487 0.0437629
0.981308 0.188037 0.0562142
0 0.242435 0.174228
0.00259403 0.272343 0.206134
0.068574 0.305074 0.222614
0.253208 0.314641 0.160845
0.486183 0.309148 0.0683299
0.660563 0.305562 0.040116
0.790204 0.313832 0.0480507
0.90425 0.328679 0.0614939
1 0.346609 0.079118
0 0.364279 0.227298
0 0.400977 0.263539
0.0533455 0.438605 0.288014
0.184466 0.46186 0.279896
0.421607 0.470024 0.181689
0.642924 0.469963 0.107057
0.807935 0.474754 0.0779583
0.928756 0.491264 0.0839704
1 0.511147 0.102998
0 0.603647 0.227237
0.0138705 0.556313 0.336095
0.0764477 0.594339 0.354025
0.19736 0.61857 0.345953
0.385077 0.632517 0.289113
0.601907 0.637964 0.211749
0.789593 0.64477 0.155657
0.931334 0.655207 0.129412
1 0.664729 0.123781
0 0.76965 0.286351
0 0.789334 0.310277
0.109255 0.800137 0.333913
0.256718 0.774563 0.392462
0.403906 0.784772 0.357794
0.574304 0.788205 0.29662
0.757794 0.786954 0.214542
0.896574 0.783261 0.171038
1 0.782361 0.142565
0 0.930724 0.334813
0.0458076 0.942962 0.339605
0.155993 0.948501 0.333547
0.303609 0.939757 0.310002
0.461555 0.925505 0.278569
0.61854 0.909072 0.243305
0.758679 0.895415 0.209903
0.877256 0.886519 0.181155
0.983444 0.880262 0.15584
0 1 0.3355
0.0805066 1 0.323262
0.19353 1 0.303517
0.341665 1 0.270359
0.49781 1 0.232197
0.651408 1 0.193179
0.78706 0.986175 0.158999
0.899702 0.97464 0.131807
0.998917 0.966537 0.110643
0.0605478 0.0604105 0.270604
0.13109 0.0440528 0.246632
0.201068 0.028275 0.212284
0.297246 0.0139467 0.189914
0.432227 0 0.175952
0.590326 0 0.162142
0.762112 0 0.150072
0.859648 0 0.139437
0.949172 0 0.132372
0.0157778 0.103334 0.230503
0.069337 0.0974441 0.23743
0.19707 0.0991073 0.208377
0.319615 0.0846418 0.180667
0.45745 0.0728313 0.163058
0.590494 0.0630655 0.148959
0.762173 0.0533608 0.136355
0.865461 0.0542153 0.132662
0.959869 0.0597696 0.133852
0 0.158068 0.235843
0.0314336 0.178195 0.269535
0.205875 0.205875 0.205875
0.342535 0.193057 0.188983
0.485328 0.176989 0.161166
0.626764 0.167788 0.14136
0.7467 0.170474 0.140597
0.885054 0.178271 0.140826
0.986465 0.192859 0.152544
0 0.231144 0.268025
0 0.263233 0.310445
0.108049 0.314885 0.276829
0.30071 0.329305 0.222156
0.500359 0.323995 0.169467
0.657786 0.316274 0.151247
0.789364 0.318639 0.146883
0.906081 0.334447 0.158877
1 0.352392 0.173953
0 0.358953 0.324361
0 0.398138 0.369558
0.0448615 0.441047 0.403052
0.186404 0.476478 0.379309
0.423484 0.489754 0.288853
0.660624 0.487053 0.20058
0.821241 0.485725 0.170871
0.933745 0.496803 0.178149
1 0.516762 0.196674
0 0.5523 0.375433
0.0253605 0.557717 0.436286
0.078706 0.599588 0.458854
0.192599 0.630762 0.453651
0.363027 0.651286 0.413474
0.602426 0.655695 0.31487
0.804868 0.654429 0.240543
0.944625 0.657954 0.21004
1 0.666407 0.208362
0 0.779568 0.38999
0 0.800977 0.411109
0.146532 0.757549 0.508003
0.262913 0.781521 0.488853
0.406592 0.79411 0.449897
0.566247 0.79498 0.399298
0.745068 0.787594 0.321187
0.899123 0.782681 0.256031
1 0.781582 0.220386
0 0.939132 0.431861
0.049958 0.951171 0.434073
0.160327 0.955795 0.425071
0.311055 0.940963 0.409186
0.462226 0.899321 0.443687
0.60798 0.894575 0.384741
0.75201 0.89012 0.318425
0.884291 0.885817 0.26006
0.988998 0.878798 0.235004
0 1 0.427832
0.0843061 1 0.414969
0.198001 1 0.394202
0.346685 1 0.360113
0.503365 1 0.320867
0.657206 1 0.280598
0.792584 0.986465 0.24538
0.90425 0.973831 0.217746
1 0.965042 0.196918
0.0513924 0.0515908 0.395453
0.117556 0.0364385 0.366201
0.179889 0.0232853 0.329656
0.258701 0.0132906 0.288884
0.39295 0 0.28246
0.570214 0 0.280232
0.758648 0 0.277272
0.856184 0 0.2654
0.946044 0 0.257572
0.0103151 0.0959335 0.348028
0.058793 0.0901656 0.345144
0.115267 0.087068 0.322881
0.268421 0.0814527 0.287358
0.416068 0.07187 0.2748
0.554864 0.063798 0.265187
0.704082 0.0574655 0.259785
0.864805 0.0529183 0.258228
0.959625 0.0594492 0.25893
0 0.152132 0.345846
0.0179751 0.155535 0.368841
0.114061 0.185092 0.38172
0.307652 0.187549 0.325093
0.442344 0.17882 0.301167
0.594781 0.17023 0.271382
0.722057 0.173007 0.264714
0.885664 0.179843 0.26685
0.989151 0.195209 0.278248
0 0.225589 0.370413
0 0.249699 0.41651
0.0996414 0.306416 0.403418
0.335805 0.335805 0.335805
0.487404 0.332784 0.327596
0.636683 0.326848 0.306889
0.773632 0.326818 0.287831
0.88307 0.339223 0.290181
1 0.355413 0.299001
0 0.353872 0.432563
0.00462348 0.392844 0.48452
0.0498665 0.43711 0.518654
0.261616 0.487526 0.436759
0.474784 0.505516 0.387823
0.676188 0.502449 0.338231
0.817319 0.499077 0.3205
0.930053 0.504753 0.314412
1 0.5205 0.323461
0 0.547753 0.497108
0.0379492 0.556008 0.551827
0.0831006 0.598611 0.583368
0.191714 0.634272 0.585199
0.363821 0.665919 0.545663
0.604242 0.674464 0.455543
0.821408 0.668925 0.368582
0.953674 0.664027 0.333974
1 0.665461 0.329656
0 0.787655 0.521187
0.0626993 0.753872 0.58558
0.158495 0.758373 0.627588
0.266331 0.785092 0.616663
0.402823 0.802365 0.582132
0.563149 0.807416 0.528679
0.740871 0.799283 0.452491
0.908507 0.785916 0.369848
1 0.777966 0.329061
0 0.944457 0.556146
0.0516213 0.95671 0.557549
0.161975 0.961105 0.547585
0.337148 0.895689 0.614725
0.4645 0.900481 0.567834
0.607309 0.898726 0.508644
0.748241 0.891737 0.446799
0.873365 0.882124 0.392828
0.985367 0.874159 0.352041
0 1 0.548806
0.0858015 1 0.536385
0.199847 1 0.515877
0.348699 1 0.482063
0.506996 1 0.453681
0.650996 0.982406 0.470695
0.776593 0.972259 0.418769
0.890089 0.965972 0.365789
1 0.962463 0.316274
0.0415198 0.0426184 0.520836
0.103319 0.0289769 0.484703
0.150988 0.0201419 0.452552
0.237659 0.0117494 0.390173
0.357412 0.000534066 0.383322
0.638987 0 0.429816
0.754833 0 0.410956
0.85243 0 0.398352
0.942489 0 0.390097
0.00503548 0.088777 0.461601
0.0507362 0.0845655 0.449104
0.0815442 0.0844129 0.441016
0.23125 0.0792096 0.38677
0.376928 0.0720836 0.377798
0.515709 0.0657511 0.376379
0.685557 0.0579232 0.383108
0.863493 0.0509804 0.391379
0.958679 0.0584421 0.39202
0 0.146517 0.45005
0.0138094 0.152575 0.465492
0.0311284 0.164508 0.488899
0.214557 0.177005 0.44622
0.389136 0.1785 0.419348
0.549966 0.175555 0.403372
0.687907 0.177371 0.389258
0.82887 0.188006 0.400778
0.991516 0.197284 0.41326
0 0.224948 0.467826
0 0.24831 0.509316
0.0169375 0.281895 0.558267
0.234791 0.320745 0.519387
0.452659 0.331975 0.476097
0.595148 0.333547 0.461173
0.740963 0.336797 0.440925
0.858412 0.346761 0.431205
1 0.358633 0.435859
0 0.35227 0.532433
0.0124361 0.39118 0.585458
0.040238 0.429358 0.634287
0.251865 0.482765 0.573358
0.512947 0.512947 0.512947
0.66421 0.512734 0.506767
0.797421 0.511238 0.488502
0.914275 0.515602 0.471382
1 0.526848 0.468711
0 0.62237 0.616373
0.0522774 0.555398 0.658244
0.0926528 0.596536 0.696559
0.206073 0.632288 0.698482
0.440925 0.674952 0.617365
0.656443 0.688762 0.568017
0.837354 0.683192 0.518181
0.94847 0.674586 0.492683
1 0.66862 0.472663
0 0.794797 0.658274
0.0820325 0.752026 0.707362
0.173129 0.757687 0.743862
0.271687 0.783444 0.744198
0.396582 0.803876 0.723827
0.556435 0.818524 0.673915
0.740459 0.813993 0.60061
0.92253 0.795972 0.507256
1 0.780346 0.461936
0 0.948867 0.687724
0.0528725 0.960998 0.689097
0.215473 0.913008 0.729763
0.342611 0.899763 0.730846
0.465415 0.904158 0.698543
0.601541 0.904265 0.653605
0.74406 0.901747 0.591745
0.875578 0.89102 0.531472
0.988922 0.875624 0.481453
0 1 0.677791
0.086656 1 0.666682
0.200839 1 0.6477
0.349401 1 0.615625
0.516854 0.999939 0.638987
0.652888 0.990509 0.59086
0.779385 0.979828 0.544274
0.889479 0.969009 0.50106
0.989425 0.962432 0.469764
0.0342412 0.0371557 0.687877
0.0891432 0.0223697 0.594522
0.133165 0.0175479 0.555642
0.207721 0.0120089 0.495079
0.485039 0 0.575845
0.635264 0 0.563333
0.751217 0 0.543984
0.848966 0 0.531151
0.939178 0 0.522774
0.000213626 0.0826123 0.566751
0.0427558 0.0804456 0.544411
0.0699779 0.0823987 0.52755
0.189136 0.0797589 0.493416
0.347738 0.0733196 0.470603
0.481086 0.0687877 0.475792
0.75993 0.0458839 0.529717
0.862715 0.0495766 0.525353
0.958358 0.0580453 0.526406
0 0.142092 0.543267
0.0110323 0.150668 0.550973
0.0289769 0.165347 0.57113
0.153277 0.176181 0.560952
0.3523 0.179568 0.520516
0.510079 0.180941 0.51519
0.648829 0.186053 0.512963
0.813321 0.193591 0.530388
0.9944 0.200534 0.55494
0 0.225605 0.555138
0 0.251667 0.593149
0.0156558 0.282078 0.635706
0.106111 0.307622 0.654612
0.354238 0.326574 0.598795
0.541222 0.33756 0.58352
0.697307 0.345998 0.577798
0.823056 0.357259 0.571542
0.960296 0.370459 0.580194
0 0.427314 0.685924
0.0205386 0.394903 0.671778
0.046128 0.434501 0.719005
0.15169 0.466346 0.730678
0.404578 0.502907 0.693858
0.627314 0.514153 0.656687
0.755215 0.52018 0.645533
0.881636 0.526726 0.62739
0.987518 0.535988 0.616007
0 0.630625 0.753902
0.0666819 0.557763 0.748486
0.103746 0.60119 0.789136
0.193393 0.634928 0.814038
0.428489 0.67219 0.754192
0.694804 0.694804 0.694804
0.825208 0.693004 0.686549
0.926863 0.684688 0.660258
1 0.675792 0.628473
0 0.800946 0.792462
0.0109865 0.822965 0.813031
0.182422 0.766567 0.84184
0.278859 0.791211 0.84715
0.397757 0.806378 0.840772
0.599313 0.82356 0.773495
0.789776 0.82327 0.714992
0.937301 0.806989 0.657801
1 0.788708 0.621134
0 0.952377 0.81799
0.054551 0.96408 0.819867
0.232074 0.907469 0.847425
0.344564 0.910338 0.836133
0.468147 0.914931 0.811704
0.60267 0.914168 0.78201
0.73666 0.911696 0.744442
0.876799 0.90457 0.685908
0.997894 0.88542 0.62887
0 1 0.806775
0.0877394 1 0.797543
0.201877 1 0.780957
0.387518 1 0.797742
0.516487 1 0.760204
0.652735 1 0.72163
0.779904 0.991516 0.684749
0.891569 0.981491 0.648585
0.99234 0.967498 0.610361
0.0255283 0.0304112 0.808637
0.109758 0.0163729 0.793561
0.20119 0.00598154 0.783337
0.331502 0 0.756085
0.493431 0 0.711467
0.632807 0 0.681468
0.748806 0 0.661875
0.846845 0 0.649241
0.937255 0 0.641138
0 0.100084 0.792935
0.0652323 0.0942702 0.791547
0.0782483 0.084535 0.636912
0.158282 0.0831922 0.579324
0.314244 0.0779736 0.55906
0.618631 0.0508278 0.652506
0.759762 0.0451972 0.65124
0.863172 0.0499275 0.648325
0.95996 0.059678 0.652399
0 0.192126 0.800626
0.010193 0.156847 0.639979
0.0288548 0.168963 0.636698
0.134661 0.179797 0.638071
0.312245 0.184237 0.611688
0.482261 0.187778 0.600504
0.615274 0.196567 0.611872
0.894163 0.188708 0.67744
0.998581 0.205676 0.688701
0 0.312428 0.80911
0.00296025 0.258 0.657633
0.0216373 0.289708 0.698543
0.10695 0.314244 0.720226
0.294514 0.331823 0.696681
0.506264 0.34374 0.672053
0.659083 0.355947 0.678279
0.78529 0.369528 0.684535
0.946288 0.379995 0.70457
0 0.463844 0.835492
0.0291752 0.403388 0.735759
0.0558328 0.445167 0.783154
0.132128 0.476158 0.81622
0.274464 0.498711 0.812985
0.524071 0.513909 0.763867
0.699855 0.527886 0.75494
0.838087 0.538552 0.751324
0.952026 0.547509 0.742718
0 0.636057 0.871763
0.00260929 0.630716 0.87158
0.114427 0.613779 0.858885
0.206882 0.646525 0.885924
0.334752 0.671382 0.896986
0.580499 0.689464 0.855573
0.784146 0.694438 0.819394
0.881163 0.692638 0.800214
0.982956 0.684901 0.767529
0 0.807736 0.909133
0.0132753 0.83212 0.929061
0.190463 0.779141 0.91902
0.288304 0.801678 0.927672
0.408667 0.814481 0.925032
0.58088 0.819211 0.890944
0.825422 0.825422 0.825422
0.925185 0.815869 0.809171
1 0.798856 0.773648
0 0.955871 0.931548
0.05832 0.967224 0.934417
0.171603 0.969497 0.929732
0.348821 0.919493 0.927031
0.473457 0.92314 0.909407
0.608804 0.921981 0.887617
0.739559 0.920073 0.865614
0.886 0.917952 0.824033
1 0.896849 0.767514
0 1 0.920501
0.0903639 1 0.913375
0.204471 1 0.899489
0.387945 1 0.899077
0.517266 1 0.87013
0.653696 1 0.840742
0.781033 1 0.814603
0.893614 0.995712 0.790539
0.996658 0.98349 0.759869
0.0179751 0.0252842 0.909743
0.102815 0.0129702 0.894957
0.193225 0.0037232 0.883848
0.314137 0 0.861677
0.478508 0 0.818143
0.628611 0 0.783246
0.748058 0 0.761975
0.84625 0 0.74966
0.936843 0 0.743069
0 0.0977493 0.897093
0.0577859 0.0927138 0.89543
0.142763 0.0878614 0.892744
0.282826 0.0758831 0.865599
0.462608 0.0614786 0.819898
0.628855 0.0504463 0.784009
0.759441 0.0476081 0.767224
0.864622 0.052842 0.763897
0.963363 0.0632639 0.767452
0 0.19144 0.902358
0.00891127 0.193378 0.910628
0.0929274 0.196368 0.917449
0.158312 0.188098 0.7449
0.285252 0.192996 0.680186
0.452934 0.198611 0.675196
0.763455 0.185809 0.783108
0.898466 0.195743 0.797742
1 0.212467 0.807233
0 0.314153 0.908476
0 0.326589 0.927749
0.0337682 0.306966 0.77847
0.120577 0.323507 0.760601
0.280064 0.340963 0.755947
0.469978 0.353902 0.745327
0.633768 0.367453 0.748409
0.75375 0.383764 0.767956
1 0.377203 0.834653
0 0.469139 0.933913
0 0.491753 0.961227
0.0677958 0.45687 0.826062
0.148959 0.486549 0.857343
0.280781 0.507942 0.865492
0.472038 0.522683 0.843351
0.664149 0.53666 0.824735
0.799191 0.550729 0.834363
0.914122 0.561288 0.83827
0 0.642756 0.96817
0 0.667796 0.99321
0.128557 0.626993 0.908248
0.224353 0.658 0.936706
0.345434 0.680644 0.954772
0.48101 0.695857 0.963302
0.701015 0.696666 0.910735
0.830716 0.698604 0.889494
0.935241 0.694881 0.870146
0 0.815229 1
0.0218509 0.838529 1
0.161486 0.826871 1
0.300343 0.810605 0.987793
0.4224 0.820768 0.988556
0.557443 0.824613 0.982147
0.711315 0.823606 0.960037
0.880323 0.817578 0.921447
0.967819 0.80734 0.893828
0 0.959823 1
0.0642557 0.970413 1
0.174838 0.974716 1
0.355596 0.927321 0.999481
0.481468 0.929351 0.987701
0.617731 0.926558 0.971572
0.74844 0.923247 0.955825
0.919387 0.919387 0.919387
1 0.907454 0.900725
0 1 1
0.0948348 1 1
0.20911 1 0.999039
0.358068 1 0.978134
0.520287 1 0.962829
0.656779 1 0.940581
0.78407 1 0.922255
0.896681 1 0.909545
1 0.99881 0.893385
0.0107576 0.0209049 1
0.0966812 0.0107424 0.98909
0.185672 0.0021973 0.976471
0.300542 0 0.955978
0.463615 0 0.917082
0.618128 0 0.883818
0.746319 0 0.862058
0.846433 0 0.852979
0.940337 0 0.863386
0 0.0962539 0.993729
0.0509651 0.0919203 0.991424
0.134463 0.088365 0.988815
0.269902 0.0776837 0.967117
0.444846 0.0641947 0.930083
0.614771 0.0538643 0.898116
0.757076 0.0509651 0.878737
0.867231 0.0567483 0.874571
0.967926 0.0679789 0.878355
0 0.191592 0.996063
0.00495918 0.19472 1
0.0883955 0.199008 1
0.240162 0.19527 0.990845
0.428428 0.189334 0.958968
0.618112 0.186038 0.929137
0.78027 0.190448 0.912184
0.903426 0.203098 0.912383
1 0.219883 0.921218
0 0.317082 0.999832
0 0.330694 1
0.0576028 0.345769 1
0.215091 0.351629 1
0.311238 0.35256 0.856931
0.445823 0.366476 0.80763
0.606409 0.381094 0.817197
0.910094 0.372457 0.931868
1 0.385733 0.950469
0 0.47541 1
0 0.498421 1
0.062501 0.519768 1
0.171069 0.500862 0.910002
0.297948 0.518288 0.908721
0.469017 0.533181 0.907027
0.64419 0.546731 0.898985
0.779171 0.561883 0.901076
0.881025 0.57554 0.91519
0 0.649744 1
0 0.675013 1
0.0936294 0.697536 1
0.242679 0.6692 0.982147
0.366064 0.688762 1
0.502602 0.700221 1
0.670146 0.702983 0.996429
0.836393 0.70045 0.966918
0.940215 0.698222 0.954528
0 0.822324 1
0.0316777 0.844419 1
0.142504 0.858122 1
0.313527 0.81796 1
0.437308 0.825208 1
0.573587 0.826337 1
0.706111 0.825177 1
0.849867 0.818998 1
0.975677 0.807843 0.983764
0 0.963241 1
0.0712902 0.973007 1
0.18265 0.97615 1
0.353628 0.943282 1
0.490837 0.93315 1
0.627802 0.928283 1
0.75845 0.922957 1
0.876936 0.918929 1
0.997009 0.909392 1
0.00199893 1 1
0.10013 1 1
0.214832 1 1
0.360433 1 1
0.524208 1 1
0.660899 1 1
0.787869 1 1
0.899596 1 1
1 1 1
