Assets/Demo/LUTs/02_Color LUTs_Creative Blue.cube
TITLE "Generated by Resolve"
LUT_3D_SIZE 33
0.0742351 0.0742351 0.0742351
0.0953231 0.0699168 0.0698711
0.116747 0.0655528 0.0654002
0.137316 0.0611734 0.060853
0.157595 0.0567483 0.0562295
0.17818 0.0522774 0.0515755
0.199573 0.0475929 0.0467079
0.222568 0.0427558 0.0417334
0.247791 0.0377661 0.0366979
0.275273 0.0323796 0.0312963
0.304143 0.0266728 0.0255894
0.334188 0.0209812 0.0198978
0.364996 0.0154726 0.0143893
0.396307 0.0104219 0.00933852
0.427848 0.00602731 0.00494392
0.459388 0.00172427 0.000640879
0.491173 0 0
0.523095 0 0
0.571679 0 0
0.6168 0 0
0.648661 0 0
0.679286 0 0
0.708675 0 0
0.736797 0 0
0.763867 0 0
0.789563 0 0
0.81413 0 0
0.837827 0 0
0.861006 0 0
0.883558 0 0
0.905867 0 0
0.928115 0 0
0.950301 0 0
0.0603189 0.0851759 0.0600137
0.0820478 0.0818799 0.056672
0.104067 0.0778363 0.052781
0.126711 0.0734875 0.0485695
0.148852 0.0691081 0.0443275
0.171038 0.0647135 0.0400397
0.193881 0.0601053 0.0355535
0.217838 0.0552224 0.0307927
0.243549 0.0502937 0.0259861
0.271778 0.0456092 0.0214084
0.301915 0.0409857 0.0168765
0.333318 0.0364996 0.0124971
0.365438 0.032166 0.00825513
0.397482 0.0277256 0.00390631
0.429206 0.0234226 0
0.461112 0.0193942 0
0.493111 0.0152132 0
0.525109 0.0111238 0
0.559274 0.00714122 0
0.612696 0.00138857 0
0.645762 0 0
0.676631 0 0
0.70631 0 0
0.73463 0 0
0.7617 0 0
0.787549 0 0
0.812512 0 0
0.836423 0 0
0.859678 0 0
0.882445 0 0
0.904936 0 0
0.927596 0 0
0.94992 0 0
0.0467079 0.0944991 0.0461433
0.068101 0.0931716 0.0446632
0.0899214 0.0902876 0.0428626
0.112078 0.0866712 0.0411994
0.138689 0.0824292 0.0330358
0.163073 0.0784009 0.0289921
0.188174 0.0747234 0.0256046
0.214511 0.0710002 0.0222171
0.242252 0.0672007 0.0187686
0.271641 0.0632792 0.0151522
0.302541 0.0590982 0.0112306
0.334295 0.0546883 0.00708019
0.366629 0.0503548 0.00299077
0.399069 0.0461128 0
0.431083 0.0419471 0
0.463035 0.0378576 0
0.495399 0.0339361 0
0.52755 0.0299382 0
0.559457 0.0260929 0
0.602243 0.0216678 0
0.643732 0.0175937 0
0.674708 0.0143435 0
0.704463 0.0115206 0
0.732998 0.00915541 0
0.760494 0.00741588 0
0.786587 0.00588998 0
0.811551 0.00474556 0
0.83566 0.00396735 0
0.859144 0.00349432 0
0.8822 0.00331121 0
0.905135 0.00343328 0
0.92781 0.00350958 0
0.950378 0.00378424 0
0.0339971 0.103166 0.0357214
0.0540932 0.103304 0.0355688
0.0757 0.102541 0.0356146
0.0983444 0.100862 0.0360876
0.122026 0.0988174 0.037171
0.153826 0.0959793 0.0270237
0.183978 0.093019 0.0196841
0.21239 0.0898451 0.0162814
0.241321 0.0861982 0.0130617
0.271443 0.0822156 0.00956741
0.302937 0.0781415 0.00593576
0.335225 0.0738689 0.00209049
0.367864 0.0695048 0
0.400519 0.0652018 0
0.43299 0.0612802 0
0.465248 0.0572976 0
0.497704 0.0533455 0
0.530129 0.049485 0
0.562432 0.0459754 0
0.596262 0.0424353 0
0.641962 0.0383764 0
0.673655 0.0353857 0
0.703655 0.0328832 0
0.73257 0.0309453 0
0.760098 0.0292973 0
0.786435 0.0281071 0
0.811688 0.0273442 0
0.836057 0.0269017 0
0.859754 0.0267643 0
0.883238 0.0271153 0
0.906325 0.0274968 0
0.929351 0.0280156 0
0.952193 0.0287022 0
0.0239719 0.114046 0.0307469
0.0433204 0.114931 0.0323491
0.0645457 0.117159 0.0344854
0.0868086 0.117464 0.0364233
0.10985 0.116548 0.038468
0.133898 0.114855 0.0408179
0.169619 0.112001 0.0278782
0.204868 0.109163 0.0160983
0.238468 0.105882 0.00848402
0.270283 0.102098 0.00434882
0.302434 0.0979782 0.000747692
0.335286 0.0937057 0
0.368658 0.0896162 0
0.401801 0.0854353 0
0.434501 0.0814527 0
0.46714 0.0775921 0
0.50016 0.073991 0
0.532952 0.0703593 0
0.565454 0.0669108 0
0.597375 0.0636912 0
0.637675 0.0603647 0
0.673503 0.0577096 0
0.703777 0.0555276 0
0.732799 0.0537728 0
0.760586 0.0524605 0
0.787167 0.051606 0
0.812711 0.0512245 0
0.837415 0.0512245 0
0.861433 0.0515145 0
0.885008 0.0520638 0
0.908598 0.0530709 0
0.931975 0.054078 0
0.955184 0.0552529 0
0.0171054 0.127199 0.0312657
0.0349279 0.127291 0.0338445
0.0538491 0.131182 0.0364691
0.0748913 0.13341 0.039292
0.0968948 0.133989 0.0420996
0.119951 0.133333 0.0450141
0.144976 0.131502 0.0478828
0.184985 0.128832 0.0315862
0.22501 0.125994 0.0160372
0.263447 0.122515 0.00440986
0.300084 0.118807 0
0.334524 0.114733 0
0.368429 0.110613 0
0.402228 0.10663 0
0.435645 0.102968 0
0.468894 0.0994125 0
0.50219 0.0958114 0
0.535393 0.0923781 0
0.568307 0.0891737 0
0.600671 0.0862745 0
0.635493 0.0836652 0
0.673762 0.0812238 0
0.704311 0.0793774 0
0.733654 0.0780346 0
0.761791 0.0771649 0
0.788693 0.0767224 0
0.814527 0.0767376 0
0.839551 0.0771801 0
0.863951 0.0779583 0
0.887861 0.0789654 0
0.911528 0.0801862 0
0.935271 0.0816815 0
0.958877 0.0833753 0
0.0105287 0.140017 0.0341802
0.0272831 0.139651 0.0381476
0.0437629 0.144976 0.0411841
0.0626383 0.148623 0.0442206
0.0832532 0.150927 0.0476387
0.105119 0.15169 0.0510567
0.12932 0.150958 0.0543221
0.155535 0.148943 0.0574197
0.201083 0.146548 0.0361028
0.245594 0.143847 0.0175326
0.288365 0.140475 0.0028687
0.328695 0.136767 0
0.366369 0.132937 0
0.401877 0.12932 0
0.435935 0.125841 0
0.469749 0.122469 0
0.503655 0.119188 0
0.537408 0.11603 0
0.570794 0.113085 0
0.603708 0.110567 0
0.636423 0.108461 0
0.673854 0.106477 0
0.705303 0.104997 0
0.734966 0.104051 0
0.763455 0.103639 0
0.790753 0.103685 0
0.816892 0.104143 0
0.842206 0.104982 0
0.866957 0.106233 0
0.891264 0.107774 0
0.915297 0.109483 0
0.939315 0.111376 0
0.963317 0.113603 0
0.0043183 0.152819 0.039353
0.0196841 0.152789 0.0441901
0.0340887 0.159152 0.047837
0.050782 0.164096 0.0512398
0.0692912 0.167697 0.0548104
0.0895857 0.169924 0.0585489
0.112932 0.170703 0.0622721
0.138613 0.16994 0.0657359
0.169909 0.16791 0.0642863
0.219486 0.165743 0.0398718
0.267796 0.163104 0.0188144
0.314046 0.160052 0.0019379
0.357229 0.156832 0
0.397192 0.15346 0
0.434363 0.150256 0
0.469703 0.147189 0
0.504326 0.144244 0
0.538766 0.141482 0
0.572778 0.138903 0
0.606165 0.136645 0
0.63888 0.13492 0
0.673945 0.133577 0
0.706615 0.132586 0
0.736584 0.132052 0
0.765377 0.132052 0
0.793042 0.132586 0
0.819593 0.133562 0
0.845258 0.134874 0
0.870344 0.136599 0
0.895109 0.13872 0
0.919661 0.141085 0
0.944137 0.143572 0
0.968566 0.146349 0
0 0.165713 0.0465705
0.0120546 0.168521 0.051606
0.0245975 0.174731 0.0556802
0.0393072 0.180407 0.0595712
0.0558328 0.185214 0.0635538
0.0745251 0.189014 0.0677806
0.0964218 0.190951 0.071519
0.121202 0.191409 0.0750744
0.14847 0.190539 0.0785229
0.188968 0.188525 0.0675669
0.241703 0.186801 0.0413672
0.293034 0.184543 0.0189059
0.341131 0.181872 0.00138857
0.385779 0.17908 0
0.427161 0.176379 0
0.466148 0.173739 0
0.503502 0.171176 0
0.539467 0.168811 0
0.574258 0.166705 0
0.608286 0.164858 0
0.641428 0.163363 0
0.674876 0.162387 0
0.707897 0.161913 0
0.738262 0.161883 0
0.767407 0.162325 0
0.795544 0.16347 0
0.822568 0.165042 0
0.848692 0.166949 0
0.874159 0.169177 0
0.89958 0.172107 0
0.924651 0.175128 0
0.949676 0.178286 0
0.974502 0.181598 0
0 0.183093 0.0541238
0.00326543 0.187961 0.0589303
0.0151522 0.193423 0.0639353
0.0284428 0.199023 0.0686046
0.0433051 0.204608 0.0733196
0.0599985 0.209247 0.0778058
0.0805524 0.21239 0.0817884
0.104295 0.214054 0.0854505
0.130892 0.214343 0.0889143
0.15996 0.213367 0.0923171
0.213672 0.211734 0.0667735
0.268513 0.210407 0.0404364
0.320531 0.208453 0.018677
0.369345 0.206302 0.00146487
0.414801 0.204227 0
0.457557 0.202167 0
0.498268 0.200076 0
0.537148 0.198123 0
0.57435 0.19646 0
0.609873 0.195117 0
0.643763 0.194064 0
0.67686 0.19353 0
0.709743 0.193606 0
0.740642 0.194217 0
0.770245 0.19527 0
0.798703 0.196841 0
0.82623 0.199039 0
0.852995 0.201724 0
0.879026 0.204669 0
0.904631 0.207904 0
0.930098 0.21146 0
0.955581 0.215213 0
0.980835 0.219089 0
0 0.204807 0.0613718
0 0.209644 0.0666209
0.00553903 0.215351 0.0723583
0.0181277 0.220996 0.07776
0.0315251 0.226566 0.0830396
0.0466468 0.231754 0.0881514
0.0658885 0.235706 0.0925612
0.0886091 0.238376 0.0965286
0.114382 0.239704 0.100206
0.142855 0.239734 0.103685
0.185641 0.238758 0.0919509
0.243 0.237476 0.063859
0.297688 0.236454 0.0394598
0.349752 0.235065 0.019028
0.398779 0.233722 0.00267033
0.44506 0.232303 0
0.489143 0.230823 0
0.53106 0.229389 0
0.571038 0.228229 0
0.609155 0.227466 0
0.645304 0.22707 0
0.6795 0.22707 0
0.712352 0.227695 0
0.743801 0.228962 0
0.774014 0.230732 0
0.80296 0.232929 0
0.830839 0.23563 0
0.857984 0.238834 0
0.884443 0.242329 0
0.910353 0.246021 0
0.936004 0.249897 0
0.961624 0.253925 0
0.987045 0.258091 0
0 0.228031 0.0696727
0 0.232914 0.0753338
0 0.238788 0.0816358
0.00813306 0.244678 0.0876173
0.0206607 0.250675 0.0935836
0.0345769 0.256367 0.0993057
0.0527047 0.260929 0.104219
0.0744335 0.264393 0.108598
0.0994125 0.266667 0.112581
0.127275 0.267674 0.116228
0.160632 0.267582 0.115877
0.218265 0.266773 0.087892
0.274983 0.265919 0.0622416
0.329168 0.265339 0.0397498
0.380758 0.264622 0.0207675
0.43006 0.26392 0.00526436
0.477302 0.263203 0
0.522301 0.262486 0
0.565087 0.261921 0
0.605875 0.261799 0
0.644541 0.262074 0
0.680964 0.262776 0
0.715221 0.263935 0
0.747799 0.265812 0
0.778531 0.26807 0
0.807828 0.270771 0
0.83592 0.273823 0
0.863462 0.277577 0
0.890059 0.281361 0
0.916121 0.285328 0
0.941878 0.289433 0
0.96762 0.293736 0.00143435
0.993179 0.298177 0.00634775
0 0.252766 0.0793011
0 0.257862 0.0854963
0 0.263859 0.0921798
0 0.2701 0.0987869
0.0110018 0.276555 0.105394
0.0240177 0.282841 0.111772
0.0412604 0.287984 0.117159
0.0621195 0.292103 0.121889
0.0863813 0.295201 0.126146
0.113741 0.297154 0.129992
0.143679 0.298009 0.133532
0.196292 0.298161 0.111559
0.253727 0.297627 0.0861372
0.309773 0.297414 0.0628824
0.363256 0.297581 0.0424353
0.414862 0.297642 0.0249943
0.464775 0.297734 0.0105745
0.512642 0.297871 0
0.55819 0.298054 0
0.601465 0.298482 0
0.642496 0.299321 0
0.681208 0.300618 0
0.717357 0.302266 0
0.751171 0.304341 0
0.783093 0.30692 0
0.813199 0.309941 0
0.841642 0.313313 0
0.869001 0.317021 0
0.895689 0.321035 0
0.921904 0.325292 0
0.947799 0.329702 0.00265507
0.973571 0.334142 0.00759899
0.999069 0.338659 0.0125734
0 0.279057 0.0906081
0 0.284367 0.0972305
0 0.290578 0.104341
0 0.297047 0.111345
0.00296025 0.304143 0.1187
0.0152895 0.311025 0.125689
0.0319371 0.316793 0.131579
0.0521401 0.321553 0.136645
0.0758526 0.325429 0.141192
0.102861 0.328359 0.145296
0.132662 0.330266 0.14902
0.179019 0.331395 0.134722
0.235401 0.331899 0.110658
0.292378 0.331975 0.0877241
0.347677 0.332433 0.066804
0.4009 0.333364 0.048249
0.45272 0.334142 0.0322423
0.502785 0.334951 0.0188754
0.550698 0.335805 0.00801099
0.596201 0.336751 0
0.639277 0.337942 0
0.68011 0.339559 0
0.718303 0.341543 0
0.753506 0.343862 0
0.786587 0.346654 0
0.817777 0.34992 0
0.847211 0.353582 0
0.875257 0.357549 0
0.902144 0.3617 0
0.928267 0.366003 0.00408942
0.954009 0.370398 0.0089723
0.979629 0.374838 0.0138705
1 0.379309 0.0187686
0 0.306905 0.103853
0 0.31249 0.110887
0 0.319081 0.118486
0 0.325963 0.125994
0 0.333303 0.133623
0.00865187 0.340764 0.141146
0.0249943 0.34725 0.14757
0.0449226 0.352789 0.153109
0.0682689 0.357397 0.1579
0.0950332 0.361196 0.162219
0.124819 0.364172 0.166155
0.166918 0.366369 0.157382
0.221607 0.367819 0.135378
0.277714 0.368795 0.113512
0.3337 0.369482 0.0927901
0.388617 0.370153 0.0736706
0.441596 0.371511 0.0565805
0.493156 0.372839 0.0417639
0.542718 0.374105 0.0292058
0.590005 0.375418 0.0188907
0.634852 0.376913 0.0107271
0.678279 0.379141 0.0043946
0.718502 0.38143 0
0.755047 0.383993 0
0.789303 0.386938 0
0.821561 0.390387 0
0.851804 0.394049 0.000396735
0.880491 0.398001 0.00317388
0.907942 0.402136 0.00668345
0.934386 0.406394 0.0107424
0.960098 0.410666 0.015198
0.985458 0.414954 0.0198825
1 0.419364 0.0246891
0 0.336614 0.118685
0 0.342504 0.126085
0 0.349554 0.134173
0 0.357015 0.14226
0 0.36495 0.150423
0.00459297 0.373022 0.158434
0.0208286 0.380209 0.165347
0.0407416 0.386603 0.171374
0.0640116 0.39202 0.176486
0.0906081 0.396567 0.18088
0.120272 0.400336 0.184787
0.15964 0.403388 0.179355
0.212253 0.405676 0.159792
0.266804 0.407355 0.139422
0.321904 0.408682 0.119371
0.376928 0.409674 0.100252
0.431373 0.410315 0.0824445
0.484016 0.411582 0.0664988
0.534752 0.41323 0.0526284
0.583474 0.414954 0.0408789
0.629969 0.416846 0.0311589
0.675761 0.419196 0.0219577
0.717403 0.421592 0.0158694
0.755032 0.424155 0.0125734
0.790311 0.4271 0.0107576
0.823346 0.430411 0.0102693
0.854322 0.433982 0.0108797
0.883604 0.437781 0.0124361
0.911559 0.441794 0.0148318
0.938567 0.446052 0.0179751
0.964996 0.450568 0.0218509
0.991119 0.455314 0.0262608
1 0.460304 0.0311131
0 0.368612 0.134951
0 0.374884 0.142702
0 0.382452 0.151278
0 0.390555 0.159915
0 0.399222 0.168673
0.00291447 0.407935 0.177127
0.019028 0.415656 0.184298
0.0388952 0.422644 0.190509
0.0621653 0.428748 0.195789
0.0886397 0.43389 0.200107
0.11812 0.438193 0.203708
0.155825 0.441794 0.199771
0.206012 0.444663 0.182635
0.25864 0.446921 0.16408
0.312352 0.448814 0.145144
0.366629 0.450355 0.126528
0.420951 0.451606 0.108736
0.474434 0.452689 0.0922103
0.52639 0.453803 0.0772869
0.576303 0.455146 0.0641642
0.624903 0.45713 0.0519112
0.672801 0.459739 0.0400854
0.714916 0.462028 0.0328985
0.753384 0.46453 0.0281682
0.789425 0.467414 0.0249027
0.823224 0.47071 0.0230564
0.8551 0.474479 0.0225681
0.885466 0.478721 0.023331
0.914549 0.483268 0.0251011
0.94258 0.487999 0.0276646
0.969863 0.492851 0.030869
0.996735 0.49781 0.034638
1 0.502846 0.03888
0 0.402838 0.152651
0 0.409705 0.160922
0 0.41767 0.169757
0 0.4262 0.178637
0 0.435416 0.187747
0.00306706 0.444694 0.196475
0.019089 0.452796 0.203662
0.0388037 0.460105 0.209766
0.0619516 0.466575 0.214832
0.0883345 0.472129 0.218875
0.117708 0.47686 0.222065
0.154757 0.48098 0.21854
0.202502 0.484337 0.203815
0.253025 0.487114 0.187243
0.305028 0.489479 0.169726
0.358267 0.491676 0.152148
0.411688 0.493156 0.134478
0.464744 0.494453 0.117601
0.516701 0.495735 0.101915
0.567452 0.49749 0.0876326
0.619272 0.499992 0.0713054
0.66772 0.502266 0.0580453
0.70985 0.504158 0.0503548
0.74966 0.506767 0.0446937
0.787106 0.509834 0.0405737
0.822324 0.513359 0.0379339
0.855451 0.517281 0.0365759
0.8869 0.521553 0.0364233
0.91696 0.526116 0.0372931
0.945891 0.530831 0.0389868
0.973922 0.535637 0.0413519
1 0.540383 0.0441749
1 0.545083 0.0473945
0 0.495384 0.121965
0 0.464408 0.16376
0 0.455238 0.18967
0 0.464027 0.198596
0 0.473518 0.207675
0.00517281 0.483116 0.216373
0.0211643 0.491493 0.223423
0.0408331 0.499046 0.229252
0.0639658 0.505806 0.233997
0.0904097 0.511742 0.237675
0.119844 0.516854 0.240406
0.156542 0.521218 0.236454
0.201801 0.524865 0.223911
0.249989 0.527916 0.209201
0.299977 0.530541 0.193118
0.351293 0.532723 0.176242
0.403494 0.534447 0.15906
0.455711 0.535897 0.142168
0.507408 0.537377 0.125933
0.561425 0.540154 0.106783
0.614878 0.543099 0.0886854
0.661997 0.545113 0.0774243
0.705226 0.547204 0.0693675
0.746059 0.549767 0.0628061
0.784604 0.552804 0.0577707
0.820905 0.556298 0.0541848
0.85507 0.560174 0.0518654
0.887388 0.564279 0.0506447
0.918151 0.568566 0.05037
0.947601 0.572915 0.0508583
0.976089 0.577325 0.0520485
1 0.581689 0.0537423
1 0.585992 0.0558938
0 0.552071 0.122789
0 0.554299 0.131807
0 0.543084 0.157046
0 0.522805 0.196063
0 0.514992 0.225132
0.00901808 0.522698 0.236378
0.0251164 0.53135 0.243198
0.044892 0.539117 0.248676
0.06804 0.546014 0.252872
0.0944381 0.552026 0.255863
0.123812 0.557214 0.257771
0.16025 0.561685 0.253208
0.203052 0.565423 0.242588
0.248814 0.568551 0.229557
0.296559 0.571252 0.214832
0.346014 0.573587 0.199039
0.396902 0.575677 0.182742
0.44918 0.578058 0.165408
0.504768 0.581765 0.143832
0.560449 0.58526 0.122759
0.611139 0.587289 0.108217
0.657374 0.588891 0.0982834
0.701366 0.590936 0.0896773
0.743038 0.593393 0.0823835
0.782315 0.596185 0.0763867
0.819226 0.599298 0.0716106
0.853956 0.602686 0.0680247
0.886809 0.606348 0.0655222
0.917998 0.610086 0.0639048
0.947677 0.613748 0.0629282
0.976196 0.61735 0.0625315
1 0.620874 0.0626841
1 0.624338 0.0633097
0 0.592905 0.138613
0 0.595468 0.147433
0 0.598978 0.157
0 0.603052 0.166888
0 0.601968 0.184848
0 0.591836 0.216327
0.024918 0.58381 0.244236
0.0492256 0.5823 0.262226
0.0733654 0.586206 0.270283
0.0998856 0.592157 0.272663
0.129168 0.597208 0.273487
0.164935 0.601541 0.268482
0.205493 0.605356 0.259617
0.249485 0.609064 0.248722
0.295537 0.612329 0.235798
0.344533 0.616098 0.219318
0.397086 0.620478 0.198703
0.452399 0.625101 0.176287
0.507561 0.62858 0.155413
0.558846 0.630213 0.140917
0.60708 0.631251 0.129778
0.653452 0.632563 0.119448
0.697643 0.634165 0.110124
0.739574 0.636133 0.10193
0.779217 0.638437 0.0948959
0.816449 0.64097 0.0889296
0.851362 0.643626 0.0839094
0.884321 0.646433 0.0798657
0.915648 0.649393 0.0767376
0.94548 0.652323 0.0742962
0.973983 0.655055 0.072343
1 0.657572 0.0707713
1 0.660044 0.069749
0 0.634668 0.155398
0 0.637507 0.163882
0 0.641199 0.172946
0 0.645396 0.182254
0 0.650355 0.19202
0 0.655451 0.201587
0.0132601 0.659251 0.209506
0.0420539 0.658457 0.222217
0.0731212 0.654536 0.238758
0.104784 0.651804 0.252644
0.137499 0.651377 0.261631
0.174243 0.652903 0.262715
0.214496 0.655695 0.257603
0.258122 0.659327 0.247425
0.304707 0.663462 0.233371
0.354147 0.667506 0.216678
0.4056 0.670741 0.199359
0.45687 0.672435 0.184558
0.506447 0.672801 0.173022
0.555367 0.673213 0.161486
0.603159 0.673808 0.15024
0.649302 0.674617 0.139559
0.693584 0.675914 0.129839
0.735302 0.677089 0.120623
0.774807 0.678553 0.112383
0.812055 0.680293 0.10518
0.846998 0.682155 0.0988327
0.87985 0.684001 0.0932326
0.910964 0.685893 0.0883955
0.940703 0.687877 0.0843671
0.969223 0.689799 0.0809491
0.996704 0.691493 0.0779278
1 0.693172 0.0754711
0 0.676326 0.172183
0 0.67924 0.180041
0 0.682994 0.188434
0 0.68719 0.196948
0 0.692119 0.205859
0 0.697261 0.214588
0.018265 0.701274 0.22179
0.0463874 0.704631 0.227924
0.0773175 0.707378 0.23299
0.110811 0.709484 0.236927
0.146593 0.711086 0.239887
0.184695 0.712352 0.241382
0.225834 0.713298 0.240009
0.269184 0.714031 0.23624
0.314 0.714626 0.230426
0.360265 0.715007 0.222797
0.407889 0.715145 0.213642
0.456275 0.71516 0.203403
0.504738 0.715053 0.192401
0.552636 0.714824 0.180957
0.599481 0.714641 0.169436
0.644892 0.714672 0.158282
0.688396 0.714916 0.147646
0.72987 0.71545 0.137743
0.768963 0.715969 0.128374
0.805798 0.716655 0.119799
0.840558 0.717617 0.112154
0.873381 0.718639 0.105257
0.904402 0.719646 0.0990311
0.933959 0.720638 0.0934615
0.962417 0.721691 0.0885939
0.990005 0.722728 0.0843366
1 0.723964 0.0808423
0 0.717083 0.188052
0 0.719951 0.195087
0 0.723781 0.202731
0 0.728283 0.210697
0 0.733715 0.219181
0.000732433 0.73933 0.227436
0.0263676 0.743664 0.233967
0.055436 0.747402 0.239429
0.0871595 0.750286 0.243595
0.121431 0.752514 0.246693
0.15787 0.754147 0.248798
0.196048 0.755413 0.250156
0.235126 0.75613 0.250568
0.275227 0.756619 0.249928
0.318486 0.756893 0.245182
0.363119 0.756832 0.238468
0.409049 0.756359 0.229969
0.455802 0.755642 0.220172
0.502876 0.754849 0.209491
0.549569 0.753948 0.198184
0.595254 0.752895 0.186465
0.639536 0.751904 0.174731
0.682139 0.751171 0.163394
0.72285 0.750652 0.15256
0.761715 0.750546 0.142535
0.798123 0.750301 0.132876
0.832517 0.750271 0.123995
0.865202 0.7505 0.115953
0.896315 0.750866 0.10869
0.926024 0.751293 0.102083
0.954757 0.751873 0.0962539
0.982589 0.752392 0.0909743
1 0.75288 0.0862135
0 0.757992 0.203861
0 0.761349 0.210544
0 0.765606 0.217716
0 0.770428 0.225055
0 0.776074 0.232776
0.0112459 0.781888 0.240208
0.0376135 0.786358 0.245823
0.0671092 0.789914 0.250156
0.0992447 0.79263 0.253269
0.133837 0.794568 0.255238
0.170581 0.795865 0.256214
0.20885 0.796597 0.256275
0.248112 0.796887 0.255528
0.287831 0.796796 0.254078
0.327596 0.796567 0.252186
0.36759 0.796048 0.249653
0.409979 0.794995 0.243915
0.454963 0.793439 0.234409
0.500282 0.791669 0.223789
0.545525 0.789914 0.212512
0.590051 0.788113 0.200778
0.63331 0.786328 0.18883
0.674937 0.784665 0.176959
0.715053 0.783444 0.165698
0.753246 0.782406 0.154849
0.789456 0.781567 0.144579
0.823758 0.780957 0.134997
0.856382 0.780545 0.126101
0.887541 0.780331 0.117952
0.917601 0.780423 0.110674
0.946456 0.780438 0.103883
0.974395 0.780377 0.0975814
1 0.780346 0.0918441
0 0.799619 0.220035
0 0.803174 0.225986
0 0.807645 0.232395
0 0.812604 0.238849
0.00209049 0.818204 0.245502
0.0237888 0.823804 0.251759
0.0504158 0.827955 0.256214
0.0802014 0.831205 0.259388
0.112551 0.833509 0.261295
0.147204 0.834897 0.261952
0.183856 0.835492 0.261494
0.222049 0.835554 0.260182
0.261204 0.835126 0.258076
0.300664 0.834211 0.255192
0.340124 0.833097 0.251835
0.379812 0.831724 0.247913
0.419837 0.829969 0.243336
0.459892 0.827893 0.238178
0.499657 0.825559 0.232502
0.540795 0.823041 0.224292
0.584054 0.820493 0.212573
0.626383 0.818097 0.200671
0.667552 0.816129 0.189029
0.706889 0.814145 0.177356
0.744579 0.812467 0.16611
0.780545 0.811093 0.155413
0.81474 0.81001 0.145357
0.847517 0.809293 0.136065
0.878752 0.808606 0.12726
0.908705 0.807996 0.11902
0.937682 0.807492 0.111406
0.965835 0.807004 0.104326
0.993317 0.806775 0.0980087
0 0.840955 0.235264
0 0.844678 0.240375
0 0.848951 0.245579
0 0.853666 0.250858
0.0152743 0.858961 0.256336
0.0371099 0.864118 0.261326
0.0637369 0.867658 0.264363
0.0934462 0.870192 0.266087
0.12578 0.87187 0.266636
0.160388 0.872587 0.265934
0.196841 0.872404 0.264027
0.234668 0.871504 0.261143
0.273487 0.870176 0.257557
0.312764 0.868528 0.253391
0.352117 0.866804 0.248905
0.391333 0.864469 0.243549
0.430961 0.86183 0.237659
0.470756 0.859052 0.231418
0.510399 0.856168 0.224842
0.549538 0.853254 0.218021
0.587915 0.850385 0.211063
0.625498 0.847944 0.204334
0.661631 0.845548 0.197482
0.698772 0.843244 0.187854
0.736034 0.841093 0.176471
0.771649 0.839216 0.165499
0.805859 0.837873 0.155276
0.838392 0.83653 0.145388
0.869612 0.835386 0.136034
0.899641 0.834348 0.127214
0.928923 0.8336 0.119142
0.957244 0.83267 0.111345
0.98471 0.831815 0.104097
0 0.881575 0.248722
0 0.884733 0.252338
0 0.888502 0.256199
0.00561532 0.892561 0.259983
0.0278935 0.897231 0.264073
0.049897 0.901869 0.267781
0.0766003 0.90483 0.269535
0.106065 0.906493 0.269688
0.138064 0.90721 0.26862
